svg/Pictogram/pictogram-din-port_de_la_blouse_obligatoire.svg

<svg xmlns="http://www.w3.org/2000/svg" viewBox="0 0 58.735 58.735"><defs><clipPath><path d="m28.21 552.81h51.02v-51.02h-51.02v51.02"/></clipPath><clipPath><path d="m28.21 169.97h45.35v-45.35h-45.35v45.35"/></clipPath><clipPath><path d="m28.21 728.56h51.02v-51.02h-51.02v51.02"/></clipPath><clipPath><path d="m28.21 649.19h51.02v-51.02h-51.02v51.02"/></clipPath><clipPath><path d="m28.21 331.71h51.02v-51.02h-51.02v51.02"/></clipPath><clipPath><path d="m28.21 289.19h51.02v-51.02h-51.02v51.02"/></clipPath><clipPath id="0"><path d="m0 842.04h594.96v-842.04h-594.96v842.04"/></clipPath><clipPath><path d="m28.21 201.31h51.02v-51.02h-51.02v51.02"/></clipPath><clipPath id="1"><path d="m-8.642 850.45h612.28v-858.9h-612.28v858.9"/></clipPath><clipPath><path d="m28.21 113.44h51.02v-51.02h-51.02v51.02"/></clipPath><clipPath id="2"><path d="m301.75 640.68h51.02v-51.02h-51.02v51.02"/></clipPath></defs><g transform="translate(-6189.78 1473.29)"><g clip-path="url(#2)" transform="matrix(1.25 0 0-1.25 5810.07-674.96)"><g clip-path="url(#1)"><g clip-path="url(#0)" fill-rule="evenodd"><path d="m327.26 638.56c12.88 0 23.386-10.505 23.386-23.386 0-12.88-10.506-23.386-23.386-23.386-12.881 0-23.386 10.506-23.386 23.386 0 12.881 10.505 23.386 23.386 23.386z" fill="#fff" stroke="#000" stroke-width=".216" stroke-miterlimit="2.613"/><path d="m325.95 592.6c.848-.05 1.672-.052 2.52-.006l.08.005v2.91c-.064-.005-.127-.015-.19-.029h-.002c-.09-.02-.181-.03-.273-.032h.002c-.088-.0001-.175-.012-.261-.032h-.004c-.092-.022-.186-.032-.28-.032h-.024c-.14 0-.28.003-.419.001l.048-.002c-.089.004-.177.007-.266.008h-.024c-.091.0001-.182.013-.271.035l.007-.002c-.083.02-.168.031-.253.034h-.008c-.092.003-.183.015-.273.035l.008-.002c-.028.007-.058.012-.087.017h-.003v-2.918l-.027.0001m3.664 30.815c-.0001-.234.189-.424.423-.425.234-.0001.424.189.424.423 0 .234-.189.424-.423.424-.234 0-.424-.19-.424-.423m-5.561 0c-.0001-.234.189-.424.423-.424.233-.0001.423.189.423.423.0001.233-.188.424-.422.424-.235 0-.424-.19-.424-.423m6.565.952h.376v-9.103h.571l.634 4.932.491.05 3.21-9.348.005-.02v.002c.216-.867 1.098-1.392 1.961-1.168.867.221 1.386 1.109 1.154 1.973l-.0001.004-4.956 13.949v-.003c-.201.568-.737.948-1.339.95h-2.106v-2.218m-1.157 0v2.218h-1.093v.475 1.526.166l-.013-.005c1.648.482 2.783 1.992 2.788 3.709v.001c.007 2.137-1.727 3.879-3.869 3.883h-.009c-2.142.003-3.881-1.734-3.881-3.877v.012c-.007-1.725 1.127-3.247 2.781-3.735l.014-.003v-2.161h-1.113v-2.218h4.395m-5.551 0v2.218h-2.248c-.618 0-1.166-.399-1.355-.987l-4.24-13.184-.012-.026v.004c-.412-.888.017-1.938.931-2.282.911-.346 1.926.156 2.205 1.092v.006l2.465 8.589.53-.036.643-4.497h.703v9.103h.376m1.113-31.693v2.958h-.008c-.064.006-.127.015-.189.028l.013-.003c-.081.016-.164.026-.246.033l-.016.0001c-.095.008-.19.02-.284.036h.001c-.079.014-.16.025-.24.031l-1.057.135v-2.925l-.027.004c.668-.129 1.341-.227 2.02-.295l.027-.003m7.375.479c10.205 2.372 17.443 11.458 17.472 21.935v.081c.001 12.474-10.11 22.601-22.579 22.605h-.027c-12.48.011-22.609-10.112-22.606-22.592v.067c-.034-10.512 7.162-19.646 17.364-22.07l.03-.007v2.844l-2.01.257h.002c-.056.012-.112.019-.169.022h-.007c-.061.004-.121.011-.18.024h.007c-.083.017-.167.028-.252.032h-.009c-.092.004-.183.016-.272.037l.008-.002c-.083.019-.168.03-.254.032h-.007c-.092.003-.183.015-.271.036l.004-.0001c-.067.017-.136.025-.205.026h-.003c-.075.0001-.15.011-.222.03h.003l4.154 18.13h1.167v.152h-1.115l-.567 3.964-2.202-7.676-.002-.008c-.358-1.2-1.659-1.844-2.831-1.401-1.17.445-1.717 1.787-1.192 2.923l-.002-.004 4.232 13.156v.004c.256.784.986 1.314 1.81 1.313h-.004 4.04v1.345l-.015.005c-1.681.653-2.786 2.272-2.781 4.075v-.002c.009 2.402 1.954 4.34 4.356 4.341 2.404-.002 4.351-1.949 4.353-4.354v-.006c-.003-1.794-1.109-3.405-2.782-4.055l.015.006v-1.355h3.87c.802-.0001 1.518-.506 1.788-1.262l4.962-13.966c.313-1.124-.353-2.283-1.479-2.578-1.124-.294-2.27.388-2.55 1.515l.002-.007-2.895 8.432-.566-4.405h-.989v-.152h1.279l4.04-18.19-3.839-.466v-2.81l-.078-.019m-2.92-.481c.677.066 1.35.162 2.02.29l.027.006v2.899l-2.02-.245v-2.948l-.027-.002" fill="#007fc4"/></g></g></g></g></svg>

<?xml version="1.0" encoding="UTF-8" standalone="no"?>
<!-- Created with Inkscape (http://www.inkscape.org/) --><svg height="58.735001" id="svg3962" inkscape:output_extension="org.inkscape.output.svg.inkscape" inkscape:version="0.46" sodipodi:docname="Port de la blouse obligatoire.svg" sodipodi:version="0.32" version="1.0" width="58.735001" xmlns="http://www.w3.org/2000/svg" xmlns:cc="http://creativecommons.org/ns#" xmlns:dc="http://purl.org/dc/elements/1.1/" xmlns:inkscape="http://www.inkscape.org/namespaces/inkscape" xmlns:rdf="http://www.w3.org/1999/02/22-rdf-syntax-ns#" xmlns:sodipodi="http://sodipodi.sourceforge.net/DTD/sodipodi-0.dtd" xmlns:svg="http://www.w3.org/2000/svg">
  <metadata>
    <rdf:RDF xmlns:cc="http://web.resource.org/cc/" xmlns:dc="http://purl.org/dc/elements/1.1/" xmlns:rdf="http://www.w3.org/1999/02/22-rdf-syntax-ns#">
      <cc:Work rdf:about="">
        <dc:title></dc:title>
        <dc:description></dc:description>
        <dc:subject>
          <rdf:Bag>
            <rdf:li>unsorted</rdf:li>
          </rdf:Bag>
        </dc:subject>
        <dc:publisher>
          <cc:Agent rdf:about="http://www.openclipart.org/">
            <dc:title>Open Clip Art Library, Source: Wikimedia Commons, Source: Wikimedia Commons, Source: Wikimedia Commons</dc:title>
          </cc:Agent>
        </dc:publisher>
        <dc:creator>
          <cc:Agent>
            <dc:title></dc:title>
          </cc:Agent>
        </dc:creator>
        <dc:rights>
          <cc:Agent>
            <dc:title></dc:title>
          </cc:Agent>
        </dc:rights>
        <dc:date></dc:date>
        <dc:format>image/svg+xml</dc:format>
        <dc:type rdf:resource="http://purl.org/dc/dcmitype/StillImage"/>
        <cc:license rdf:resource="http://en.wikipedia.org/wiki/Public_domain"/>
        <dc:language>en</dc:language>
      </cc:Work>
    </rdf:RDF>
  </metadata>
  <defs id="defs3964">
    <clipPath clipPathUnits="userSpaceOnUse" id="clipPath7316">
      <path d="M 0,842.04 L 594.96,842.04 L 594.96,0 L 0,0 L 0,842.04 z" id="path7318"/>
    </clipPath>
    <clipPath clipPathUnits="userSpaceOnUse" id="clipPath7310">
      <path d="M -8.642,850.449 L 603.642,850.449 L 603.642,-8.449 L -8.642,-8.449 L -8.642,850.449 z" id="path7312"/>
    </clipPath>
    <clipPath clipPathUnits="userSpaceOnUse" id="clipPath7304">
      <path clip-rule="evenodd" d="M 301.752,640.685 L 352.776,640.685 L 352.776,589.661 L 301.752,589.661 L 301.752,640.685 z" id="path7306"/>
    </clipPath>
    <clipPath clipPathUnits="userSpaceOnUse" id="clipPath7278">
      <path d="M 0,842.04 L 594.96,842.04 L 594.96,0 L 0,0 L 0,842.04 z" id="path7280"/>
    </clipPath>
    <clipPath clipPathUnits="userSpaceOnUse" id="clipPath7272">
      <path d="M -8.642,850.449 L 603.642,850.449 L 603.642,-8.449 L -8.642,-8.449 L -8.642,850.449 z" id="path7274"/>
    </clipPath>
    <clipPath clipPathUnits="userSpaceOnUse" id="clipPath7266">
      <path clip-rule="evenodd" d="M 28.209,113.441 L 79.232,113.441 L 79.232,62.417 L 28.209,62.417 L 28.209,113.441 z" id="path7268"/>
    </clipPath>
    <clipPath clipPathUnits="userSpaceOnUse" id="clipPath7246">
      <path d="M 0,842.04 L 594.96,842.04 L 594.96,0 L 0,0 L 0,842.04 z" id="path7248"/>
    </clipPath>
    <clipPath clipPathUnits="userSpaceOnUse" id="clipPath7240">
      <path d="M -8.642,850.449 L 603.642,850.449 L 603.642,-8.449 L -8.642,-8.449 L -8.642,850.449 z" id="path7242"/>
    </clipPath>
    <clipPath clipPathUnits="userSpaceOnUse" id="clipPath7234">
      <path clip-rule="evenodd" d="M 28.209,201.315 L 79.232,201.315 L 79.232,150.291 L 28.209,150.291 L 28.209,201.315 z" id="path7236"/>
    </clipPath>
    <clipPath clipPathUnits="userSpaceOnUse" id="clipPath7222">
      <path d="M 0,842.04 L 594.96,842.04 L 594.96,0 L 0,0 L 0,842.04 z" id="path7224"/>
    </clipPath>
    <clipPath clipPathUnits="userSpaceOnUse" id="clipPath7216">
      <path d="M -8.642,850.449 L 603.642,850.449 L 603.642,-8.449 L -8.642,-8.449 L -8.642,850.449 z" id="path7218"/>
    </clipPath>
    <clipPath clipPathUnits="userSpaceOnUse" id="clipPath7210">
      <path clip-rule="evenodd" d="M 28.209,289.189 L 79.232,289.189 L 79.232,238.165 L 28.209,238.165 L 28.209,289.189 z" id="path7212"/>
    </clipPath>
    <clipPath clipPathUnits="userSpaceOnUse" id="clipPath7094">
      <path d="M 0,842.04 L 594.96,842.04 L 594.96,0 L 0,0 L 0,842.04 z" id="path7096"/>
    </clipPath>
    <clipPath clipPathUnits="userSpaceOnUse" id="clipPath7088">
      <path d="M -8.642,850.449 L 603.642,850.449 L 603.642,-8.449 L -8.642,-8.449 L -8.642,850.449 z" id="path7090"/>
    </clipPath>
    <clipPath clipPathUnits="userSpaceOnUse" id="clipPath7082">
      <path clip-rule="evenodd" d="M 28.209,552.811 L 79.232,552.811 L 79.232,501.787 L 28.209,501.787 L 28.209,552.811 z" id="path7084"/>
    </clipPath>
    <clipPath clipPathUnits="userSpaceOnUse" id="clipPath7038">
      <path d="M 0,842.04 L 594.96,842.04 L 594.96,0 L 0,0 L 0,842.04 z" id="path7040"/>
    </clipPath>
    <clipPath clipPathUnits="userSpaceOnUse" id="clipPath7032">
      <path d="M -8.642,850.449 L 603.642,850.449 L 603.642,-8.449 L -8.642,-8.449 L -8.642,850.449 z" id="path7034"/>
    </clipPath>
    <clipPath clipPathUnits="userSpaceOnUse" id="clipPath7026">
      <path clip-rule="evenodd" d="M 28.209,728.559 L 79.232,728.559 L 79.232,677.535 L 28.209,677.535 L 28.209,728.559 z" id="path7028"/>
    </clipPath>
    <clipPath clipPathUnits="userSpaceOnUse" id="clipPath5627">
      <path d="M 0,842.04 L 594.96,842.04 L 594.96,0 L 0,0 L 0,842.04 z" id="path5629"/>
    </clipPath>
    <clipPath clipPathUnits="userSpaceOnUse" id="clipPath5621">
      <path d="M -8.642,850.449 L 603.642,850.449 L 603.642,-8.449 L -8.642,-8.449 L -8.642,850.449 z" id="path5623"/>
    </clipPath>
    <clipPath clipPathUnits="userSpaceOnUse" id="clipPath5615">
      <path clip-rule="evenodd" d="M 28.209,331.709 L 79.232,331.709 L 79.232,280.685 L 28.209,280.685 L 28.209,331.709 z" id="path5617"/>
    </clipPath>
    <clipPath clipPathUnits="userSpaceOnUse" id="clipPath5261">
      <path d="M 0,842.04 L 594.96,842.04 L 594.96,0 L 0,0 L 0,842.04 z" id="path5263"/>
    </clipPath>
    <clipPath clipPathUnits="userSpaceOnUse" id="clipPath5255">
      <path d="M -8.642,850.449 L 603.642,850.449 L 603.642,-8.449 L -8.642,-8.449 L -8.642,850.449 z" id="path5257"/>
    </clipPath>
    <clipPath clipPathUnits="userSpaceOnUse" id="clipPath5249">
      <path clip-rule="evenodd" d="M 28.209,649.189 L 79.232,649.189 L 79.232,598.165 L 28.209,598.165 L 28.209,649.189 z" id="path5251"/>
    </clipPath>
    <clipPath clipPathUnits="userSpaceOnUse" id="clipPath3536">
      <path d="M 0,842.04 L 594.96,842.04 L 594.96,0 L 0,0 L 0,842.04 z" id="path3538"/>
    </clipPath>
    <clipPath clipPathUnits="userSpaceOnUse" id="clipPath3530">
      <path d="M -8.642,850.449 L 603.642,850.449 L 603.642,-8.449 L -8.642,-8.449 L -8.642,850.449 z" id="path3532"/>
    </clipPath>
    <clipPath clipPathUnits="userSpaceOnUse" id="clipPath3524">
      <path clip-rule="evenodd" d="M 28.209,169.974 L 73.563,169.974 L 73.563,124.62 L 28.209,124.62 L 28.209,169.974 z" id="path3526"/>
    </clipPath>
    <inkscape:perspective id="perspective3970" inkscape:persp3d-origin="372.04724 : 350.78739 : 1" inkscape:vp_x="0 : 526.18109 : 1" inkscape:vp_y="0 : 1000 : 0" inkscape:vp_z="744.09448 : 526.18109 : 1" sodipodi:type="inkscape:persp3d"/>
  </defs>
  <sodipodi:namedview bordercolor="#666666" borderopacity="1.0" gridtolerance="10000" guidetolerance="10" id="base" inkscape:current-layer="layer1" inkscape:cx="375" inkscape:cy="520" inkscape:document-units="px" inkscape:pageopacity="0.0" inkscape:pageshadow="2" inkscape:window-height="687" inkscape:window-width="640" inkscape:window-x="0" inkscape:window-y="-4" inkscape:zoom="0.35" objecttolerance="10" pagecolor="#ffffff" showgrid="false"/>
  <g id="layer1" inkscape:groupmode="layer" inkscape:label="Layer 1" transform="translate(-6189.7786,1473.2942)">
    <g id="g7300" transform="matrix(1.25,0,0,-1.25,5810.0661,-674.96299)">
      <g clip-path="url(#clipPath7304)" id="g7302">
        <g clip-path="url(#clipPath7310)" id="g7308">
          <g clip-path="url(#clipPath7316)" id="g7314">
            <path d="M 327.264,638.557 C 340.144,638.557 350.65,628.052 350.65,615.171 C 350.65,602.291 340.144,591.785 327.264,591.785 C 314.383,591.785 303.878,602.291 303.878,615.171 C 303.878,628.052 314.383,638.557 327.264,638.557 z" id="path7320" style="fill:#ffffff;fill-opacity:1;fill-rule:evenodd;stroke:#000000;stroke-width:0.21600001;stroke-linecap:butt;stroke-linejoin:miter;stroke-miterlimit:2.61299992;stroke-dasharray:none;stroke-opacity:1"/>
            <path d="M 325.95,592.604 C 326.798,592.554 327.622,592.552 328.47,592.598 L 328.55,592.603 L 328.55,595.513 C 328.486,595.508 328.423,595.498 328.36,595.484 L 328.358,595.484 C 328.268,595.464 328.177,595.454 328.085,595.452 L 328.087,595.452 C 327.999,595.451 327.912,595.44 327.826,595.42 L 327.822,595.419 C 327.73,595.397 327.636,595.387 327.542,595.387 L 327.518,595.387 C 327.378,595.387 327.238,595.39 327.099,595.397 L 327.147,595.395 C 327.058,595.399 326.97,595.402 326.881,595.403 L 326.857,595.404 C 326.766,595.405 326.675,595.417 326.586,595.439 L 326.593,595.437 C 326.51,595.457 326.425,595.468 326.34,595.471 L 326.332,595.471 C 326.24,595.474 326.149,595.486 326.059,595.506 L 326.067,595.504 C 326.039,595.511 326.009,595.516 325.98,595.521 L 325.977,595.521 L 325.977,592.603 L 325.95,592.604 z M 329.614,623.419 C 329.613,623.185 329.803,622.995 330.037,622.994 C 330.271,622.993 330.461,623.183 330.461,623.417 C 330.461,623.651 330.272,623.841 330.038,623.841 C 329.804,623.841 329.614,623.651 329.614,623.418 L 329.614,623.419 z M 324.053,623.418 C 324.052,623.184 324.242,622.994 324.476,622.994 C 324.709,622.993 324.899,623.183 324.899,623.417 C 324.9,623.65 324.711,623.841 324.477,623.841 L 324.476,623.841 C 324.242,623.841 324.053,623.651 324.053,623.418 z M 330.618,624.37 L 330.994,624.37 L 330.994,615.267 L 331.565,615.267 L 332.199,620.199 L 332.69,620.249 L 335.9,610.901 L 335.905,610.881 L 335.904,610.883 C 336.12,610.016 337.002,609.491 337.865,609.715 C 338.732,609.936 339.251,610.824 339.019,611.688 L 339.018,611.692 L 334.062,625.641 L 334.063,625.638 C 333.862,626.206 333.326,626.586 332.724,626.588 L 330.618,626.588 L 330.618,624.37 z M 329.461,624.37 L 329.461,626.588 L 328.368,626.588 L 328.368,627.063 L 328.368,628.589 L 328.368,628.755 L 328.355,628.75 C 330.003,629.232 331.138,630.742 331.143,632.459 L 331.143,632.469 C 331.15,634.606 329.416,636.348 327.274,636.352 L 327.265,636.352 C 325.123,636.355 323.384,634.618 323.384,632.475 L 323.384,632.487 C 323.377,630.762 324.511,629.24 326.165,628.752 L 326.179,628.749 L 326.179,626.588 L 325.066,626.588 L 325.066,624.37 L 329.461,624.37 z M 323.91,624.37 L 323.91,626.588 L 321.662,626.588 C 321.044,626.588 320.496,626.189 320.307,625.601 L 316.067,612.417 L 316.055,612.391 L 316.056,612.395 C 315.644,611.507 316.073,610.457 316.987,610.113 C 317.898,609.767 318.913,610.269 319.192,611.205 L 319.193,611.211 L 321.658,619.8 L 322.188,619.764 L 322.831,615.267 L 323.534,615.267 L 323.534,624.37 L 323.91,624.37 z M 325.023,592.677 L 325.023,595.635 L 325.015,595.636 C 324.951,595.642 324.888,595.651 324.826,595.664 L 324.839,595.661 C 324.758,595.677 324.675,595.687 324.593,595.694 L 324.577,595.695 C 324.482,595.703 324.387,595.715 324.293,595.731 L 324.303,595.73 C 324.224,595.744 324.143,595.755 324.063,595.761 L 323.006,595.896 L 323.006,592.971 L 322.979,592.975 C 323.647,592.846 324.32,592.748 324.996,592.68 L 325.023,592.677 z M 332.398,593.156 C 342.603,595.528 349.841,604.614 349.87,615.091 L 349.87,615.172 C 349.88,627.646 339.765,637.773 327.291,637.777 L 327.264,637.777 C 314.784,637.788 304.655,627.665 304.658,615.185 L 304.658,615.252 C 304.624,604.74 311.82,595.606 322.022,593.182 L 322.052,593.175 L 322.052,596.019 L 320.04,596.276 L 320.042,596.275 C 319.986,596.287 319.93,596.294 319.873,596.297 L 319.866,596.297 C 319.805,596.301 319.745,596.308 319.686,596.321 L 319.693,596.32 C 319.61,596.337 319.526,596.348 319.441,596.352 L 319.432,596.352 C 319.34,596.356 319.249,596.368 319.16,596.389 L 319.168,596.387 C 319.085,596.406 319,596.417 318.914,596.419 L 318.907,596.419 C 318.815,596.422 318.724,596.434 318.636,596.455 L 318.64,596.454 C 318.573,596.471 318.504,596.479 318.435,596.48 L 318.432,596.48 C 318.357,596.481 318.282,596.491 318.21,596.51 L 318.213,596.509 L 322.367,614.64 L 323.534,614.64 L 323.534,614.792 L 322.419,614.792 L 321.852,618.756 L 319.65,611.08 L 319.648,611.072 C 319.29,609.872 317.989,609.228 316.817,609.671 C 315.647,610.116 315.1,611.458 315.625,612.594 L 315.623,612.59 L 319.855,625.746 L 319.856,625.75 C 320.112,626.534 320.842,627.064 321.666,627.063 L 321.662,627.063 L 325.705,627.063 L 325.705,628.408 L 325.69,628.413 C 324.009,629.066 322.904,630.685 322.909,632.488 L 322.909,632.486 C 322.918,634.888 324.863,636.826 327.265,636.827 C 329.669,636.825 331.616,634.878 331.618,632.473 L 331.618,632.467 C 331.615,630.673 330.509,629.062 328.836,628.412 L 328.851,628.418 L 328.851,627.063 L 332.721,627.063 C 333.523,627.062 334.239,626.557 334.509,625.801 L 339.471,611.835 C 339.784,610.711 339.118,609.552 337.992,609.257 C 336.868,608.963 335.722,609.645 335.442,610.772 L 335.444,610.765 L 332.549,619.197 L 331.983,614.792 L 330.994,614.792 L 330.994,614.64 L 332.273,614.64 L 336.315,596.451 L 332.476,595.985 L 332.476,593.175 L 332.398,593.156 z M 329.478,592.675 C 330.155,592.741 330.828,592.837 331.495,592.965 L 331.522,592.971 L 331.522,595.87 L 329.505,595.625 L 329.505,592.677 L 329.478,592.675" id="path7322" style="fill:#007fc4;fill-opacity:1;fill-rule:evenodd;stroke:none"/>
          </g>
        </g>
      </g>
    </g>
  </g>
</svg>
